www/assets/icons/mail_lock.svg

<svg xmlns="http://www.w3.org/2000/svg" width="24" height="24" viewBox="0 0 24 24" fill='currentColor'><path d="M21 9.97V6c0-1.1-.9-2-2-2H3c-1.1 0-1.99.9-1.99 2L1 18c0 1.1.9 2 2 2h12v-5.03c0-2.76 2.24-5 5-5zM19 8l-8 5-8-5V6l8 5 8-5z"/><path d="M22 15v-1c0-1.1-.9-2-2-2s-2 .9-2 2v1c-.55 0-1 .45-1 1v3c0 .55.45 1 1 1h4c.55 0 1-.45 1-1v-3c0-.55-.45-1-1-1m-1 0h-2v-1c0-.55.45-1 1-1s1 .45 1 1z"/></svg>

<svg width="24" height="24" viewBox="0 0 24 24" xmlns="http://www.w3.org/2000/svg" fill='currentColor'><path d="M21 9.97V6C21 4.9 20.1 4 19 4H3C1.9 4 1.01 4.9 1.01 6L1 18C1 19.1 1.9 20 3 20H15V14.97C15 12.21 17.24 9.97 20 9.97H21ZM19 8L11 13L3 8V6L11 11L19 6V8Z"/><path d="M22 15V14C22 12.9 21.1 12 20 12C18.9 12 18 12.9 18 14V15C17.45 15 17 15.45 17 16V19C17 19.55 17.45 20 18 20H22C22.55 20 23 19.55 23 19V16C23 15.45 22.55 15 22 15ZM21 15H19V14C19 13.45 19.45 13 20 13C20.55 13 21 13.45 21 14V15Z"/></svg>
